X: 30748
T: Oró Sé Do Bheath Abhaile
R: polka
M: 2/4
K: Gdorian
A4 A2 GA|B2 A2 G2 E2|G4 G2 G>A|G2 D2 E2 G2|
A3 A A2 G>A|B2 A2 B2 d2-|d6 d2|e2 B2 d2 B2|A2- A>B A4:|
e4 e2 de|f2 e2 d2 B2|d3 e d2 d>e|d2 A2 B<d- d2|
e4 e2- e>d|f2 e2 f<a- a2-|a6- a>a|b2 f2 a2 f2|e2-e>f e4:|
G4 G2 FG|A2 G2 F2 D2|F4 F2 FG|F2 C2 D2 F2|
G4 G2 FG|A2 G2 A2 c2 -|c6 c2|d2 A2 c2 A2|G4 G4:|

